Numix-Light/16/status/indicator-keyboard-He-2.svg

<?xml version="1.0" encoding="UTF-8" standalone="no"?>
<svg
   xmlns:dc="http://purl.org/dc/elements/1.1/"
   xmlns:cc="http://creativecommons.org/ns#"
   xmlns:rdf="http://www.w3.org/1999/02/22-rdf-syntax-ns#"
   xmlns:svg="http://www.w3.org/2000/svg"
   xmlns="http://www.w3.org/2000/svg"
   xmlns:sodipodi="http://sodipodi.sourceforge.net/DTD/sodipodi-0.dtd"
   xmlns:inkscape="http://www.inkscape.org/namespaces/inkscape"
   viewBox="0 0 16 16"
   id="svg2"
   version="1.1"
   inkscape:version="0.91 r13725"
   sodipodi:docname="indicator-keyboard-He-2.svg">
  <metadata
     id="metadata14">
    <rdf:RDF>
      <cc:Work
         rdf:about="">
        <dc:format>image/svg+xml</dc:format>
        <dc:type
           rdf:resource="http://purl.org/dc/dcmitype/StillImage" />
      </cc:Work>
    </rdf:RDF>
  </metadata>
  <defs
     id="defs12" />
  <sodipodi:namedview
     pagecolor="#ffffff"
     bordercolor="#666666"
     borderopacity="1"
     objecttolerance="10"
     gridtolerance="10"
     guidetolerance="10"
     inkscape:pageopacity="0"
     inkscape:pageshadow="2"
     inkscape:window-width="640"
     inkscape:window-height="480"
     id="namedview10"
     showgrid="false"
     inkscape:zoom="14.75"
     inkscape:cx="8"
     inkscape:cy="8"
     inkscape:window-x="65"
     inkscape:window-y="24"
     inkscape:window-maximized="0"
     inkscape:current-layer="svg2" />
  <path
     style="fill:#353535;fill-opacity:1"
     d="M 1.5996094 0 C 0.71320937 2.9605947e-16 0 0.71320937 0 1.5996094 L 0 14.400391 C 2.9605947e-16 15.286791 0.71320937 16 1.5996094 16 L 14.400391 16 C 15.286791 16 16 15.286791 16 14.400391 L 16 1.5996094 C 16 0.71320937 15.286791 0 14.400391 0 L 1.5996094 0 z M 1.4199219 4.859375 L 2.03125 4.859375 L 2.03125 7.5683594 L 5.4160156 7.5683594 L 5.4160156 4.859375 L 6.0273438 4.859375 L 6.0273438 11.095703 L 5.4160156 11.095703 L 5.4160156 8.0996094 L 2.03125 8.0996094 L 2.03125 11.095703 L 1.4199219 11.095703 L 1.4199219 4.859375 z M 9.3613281 6.3359375 C 9.9313284 6.3359375 10.384703 6.5205781 10.720703 6.8925781 C 11.062703 7.2645781 11.234375 7.8373281 11.234375 8.6113281 C 11.234375 8.6593281 11.230609 8.7078594 11.224609 8.7558594 C 11.224609 8.8038594 11.220844 8.848625 11.214844 8.890625 L 7.9492188 8.890625 C 7.9672188 9.460625 8.1070937 9.8990779 8.3710938 10.205078 C 8.6350937 10.511078 9.0548594 10.664062 9.6308594 10.664062 C 9.9488596 10.664062 10.200719 10.634219 10.386719 10.574219 C 10.572719 10.514219 10.708969 10.463875 10.792969 10.421875 L 10.900391 10.925781 C 10.816391 10.973781 10.657828 11.029703 10.423828 11.095703 C 10.195828 11.161703 9.9252815 11.195312 9.6132812 11.195312 C 9.2052813 11.195312 8.8583125 11.135625 8.5703125 11.015625 C 8.2823125 10.895625 8.045375 10.727719 7.859375 10.511719 C 7.673375 10.295719 7.537125 10.040094 7.453125 9.7460938 C 7.369125 9.4460938 7.328125 9.119625 7.328125 8.765625 C 7.328125 8.357625 7.3840469 8.003125 7.4980469 7.703125 C 7.6180469 7.397125 7.7710313 7.1415 7.9570312 6.9375 C 8.1490312 6.7335 8.3654688 6.5842812 8.6054688 6.4882812 C 8.8514688 6.3862812 9.1033281 6.3359375 9.3613281 6.3359375 z M 9.3710938 6.8574219 C 9.1610938 6.8574219 8.9707344 6.8984219 8.8027344 6.9824219 C 8.6407344 7.0664219 8.4970937 7.1802188 8.3710938 7.3242188 C 8.2510938 7.4622187 8.1559844 7.6245469 8.0839844 7.8105469 C 8.0179844 7.9965469 7.9787969 8.1924844 7.9667969 8.3964844 L 10.630859 8.3964844 C 10.618859 7.9104844 10.505062 7.5317188 10.289062 7.2617188 C 10.073062 6.9917187 9.7670938 6.8574219 9.3710938 6.8574219 z M 13.251953 8.7539062 C 13.645853 8.7539062 13.941725 8.851875 14.140625 9.046875 C 14.339524 9.237975 14.439453 9.5044563 14.439453 9.8476562 C 14.439453 9.9997563 14.412022 10.14475 14.357422 10.28125 C 14.302822 10.41385 14.228365 10.543169 14.134766 10.667969 C 14.045066 10.792769 13.943172 10.912297 13.826172 11.029297 C 13.709172 11.146297 13.58965 11.263859 13.46875 11.380859 C 13.36735 11.478359 13.267422 11.578288 13.169922 11.679688 C 13.076322 11.777188 12.990109 11.877116 12.912109 11.978516 C 12.838009 12.076016 12.779222 12.172031 12.732422 12.269531 C 12.689522 12.363131 12.667969 12.457181 12.667969 12.550781 L 12.667969 12.5625 L 14.580078 12.5625 L 14.580078 12.896484 L 12.246094 12.896484 C 12.246094 12.888684 12.244168 12.874969 12.240234 12.855469 L 12.240234 12.755859 C 12.240234 12.572559 12.273544 12.402094 12.339844 12.246094 C 12.406144 12.086194 12.490397 11.937275 12.591797 11.796875 C 12.697097 11.656475 12.810747 11.525197 12.935547 11.404297 C 13.064247 11.283397 13.187687 11.165834 13.304688 11.052734 C 13.402187 10.959134 13.494278 10.869003 13.580078 10.783203 C 13.669778 10.693503 13.748153 10.603366 13.814453 10.509766 C 13.880753 10.416166 13.931703 10.316238 13.970703 10.210938 C 14.009703 10.105638 14.029297 9.9900344 14.029297 9.8652344 C 14.029297 9.5922344 13.956794 9.39825 13.808594 9.28125 C 13.664294 9.16035 13.480113 9.0996094 13.257812 9.0996094 C 13.133012 9.0996094 13.021328 9.1152844 12.923828 9.1464844 C 12.826328 9.1776844 12.742069 9.2149125 12.667969 9.2578125 C 12.597769 9.2968125 12.537028 9.3379594 12.486328 9.3808594 C 12.435628 9.4237594 12.3984 9.4570688 12.375 9.4804688 L 12.175781 9.2167969 C 12.199181 9.1894969 12.240328 9.1503094 12.298828 9.0996094 C 12.361228 9.0450094 12.437644 8.9921062 12.527344 8.9414062 C 12.620944 8.8907063 12.726756 8.8476 12.847656 8.8125 C 12.968556 8.7735 13.103753 8.7539063 13.251953 8.7539062 z "
     id="path4" />
</svg>

<svg xmlns="http://www.w3.org/2000/svg" viewBox="0 0 16 16">
 <path d="m 1.6 0 c -0.886 0 -1.6 0.713 -1.6 1.6 l 0 12.801 c 0 0.886 0.713 1.6 1.6 1.6 l 12.801 0 c 0.886 0 1.6 -0.713 1.6 -1.6 l 0 -12.801 c 0 -0.886 -0.713 -1.6 -1.6 -1.6 l -12.801 0 z m -0.18 4.859 l 0.611 0 l 0 2.709 l 3.385 0 l 0 -2.709 l 0.611 0 l 0 6.236 l -0.611 0 l 0 -2.996 l -3.385 0 l 0 2.996 l -0.611 0 l 0 -6.236 z m 7.941 1.477 c 0.57 0 1.023 0.185 1.359 0.557 c 0.342 0.372 0.514 0.945 0.514 1.719 c 0 0.048 -0.004 0.097 -0.01 0.145 c 0 0.048 -0.004 0.093 -0.01 0.135 l -3.266 0 c 0.018 0.57 0.158 1.01 0.422 1.314 c 0.264 0.306 0.684 0.459 1.26 0.459 c 0.318 0 0.57 -0.03 0.756 -0.09 c 0.186 -0.06 0.322 -0.11 0.406 -0.152 l 0.107 0.504 c -0.084 0.048 -0.243 0.104 -0.477 0.17 c -0.228 0.066 -0.499 0.1 -0.811 0.1 c -0.408 0 -0.755 -0.06 -1.043 -0.18 c -0.288 -0.12 -0.525 -0.288 -0.711 -0.504 c -0.186 -0.216 -0.322 -0.472 -0.406 -0.766 c -0.084 -0.3 -0.125 -0.626 -0.125 -0.98 c 0 -0.408 0.056 -0.762 0.17 -1.063 c 0.12 -0.306 0.273 -0.562 0.459 -0.766 c 0.192 -0.204 0.408 -0.353 0.648 -0.449 c 0.246 -0.102 0.498 -0.152 0.756 -0.152 z m 0.01 0.521 c -0.21 0 -0.4 0.041 -0.568 0.125 c -0.162 0.084 -0.306 0.198 -0.432 0.342 c -0.12 0.138 -0.215 0.3 -0.287 0.486 c -0.066 0.186 -0.105 0.382 -0.117 0.586 l 2.664 0 c -0.012 -0.486 -0.126 -0.865 -0.342 -1.135 c -0.216 -0.27 -0.522 -0.404 -0.918 -0.404 z m 3.881 1.896 c 0.394 0 0.69 0.098 0.889 0.293 c 0.199 0.191 0.299 0.458 0.299 0.801 c 0 0.152 -0.027 0.297 -0.082 0.434 c -0.055 0.133 -0.129 0.262 -0.223 0.387 c -0.09 0.125 -0.192 0.244 -0.309 0.361 c -0.117 0.117 -0.237 0.235 -0.357 0.352 c -0.101 0.098 -0.201 0.197 -0.299 0.299 c -0.094 0.098 -0.18 0.197 -0.258 0.299 c -0.074 0.097 -0.133 0.194 -0.18 0.291 c -0.043 0.094 -0.064 0.188 -0.064 0.281 l 0 0.012 l 1.912 0 l 0 0.334 l -2.334 0 c 0 -0.008 -0.002 -0.022 -0.006 -0.041 l 0 -0.1 c 0 -0.183 0.033 -0.354 0.1 -0.51 c 0.066 -0.16 0.151 -0.309 0.252 -0.449 c 0.105 -0.14 0.219 -0.272 0.344 -0.393 c 0.129 -0.121 0.252 -0.238 0.369 -0.352 c 0.097 -0.094 0.19 -0.184 0.275 -0.27 c 0.09 -0.09 0.168 -0.18 0.234 -0.273 c 0.066 -0.094 0.117 -0.194 0.156 -0.299 c 0.039 -0.105 0.059 -0.221 0.059 -0.346 c 0 -0.273 -0.073 -0.467 -0.221 -0.584 c -0.144 -0.121 -0.328 -0.182 -0.551 -0.182 c -0.125 0 -0.236 0.016 -0.334 0.047 c -0.098 0.031 -0.182 0.068 -0.256 0.111 c -0.07 0.039 -0.131 0.08 -0.182 0.123 c -0.051 0.043 -0.088 0.076 -0.111 0.1 l -0.199 -0.264 c 0.023 -0.027 0.065 -0.066 0.123 -0.117 c 0.062 -0.055 0.139 -0.108 0.229 -0.158 c 0.094 -0.051 0.199 -0.094 0.32 -0.129 c 0.121 -0.039 0.256 -0.059 0.404 -0.059 z" style="fill:#353535;fill-opacity:1"/>
</svg>
